svg/u1f4d4.svg

<svg viewBox="0 0 128 128" xmlns="http://www.w3.org/2000/svg">
  <g>
    <path d="M106.02,121.68H36.18c-1.66,0-1.26-1.35-1.26-3.01V14.05c0-1.66,1.35-3.01,3.01-3.01h69.36 c2.72,0,4.93,2.21,4.93,4.93v99.76C112.22,119.59,110.39,121.68,106.02,121.68z" fill="#D68B52"/>
    <path d="M18.53,115.14c0,1.94,3.07,3.57,5.01,3.57l80.39-0.05c2.98,0,4.54-1.58,4.54-3.52l-0.25-21.32H18.53 V115.14z" fill="#94C6D6"/>
    <path d="M101.47,105.88c0,0-2.13,5.85,0.03,8.78c2.51,3.4,6.89,2.58,6.89,0.99V16.44 c0-0.66-0.61-1.14-1.25-1c-1.39,0.3-3.89,0.31-7.21-1.89L101.47,105.88z" fill="#F5F5F5"/>
    <path d="M94.16,110.85H23.64V6.45c0,0,69.99,0,72.25,0c2.27,0,3.87,0.61,4.62,1.62 c0.98,1.31,1.5,3.3,1.5,5.48V103C102.01,107.33,98.5,110.85,94.16,110.85z" fill="#D68B52"/>
    <path d="M92.01,107.78H25.54c-2.76,0-4.99-2.24-4.99-4.99V11.45c0-2.76,2.24-4.99,4.99-4.99h66.47 c3.82,0,6.92,2.18,6.92,6.92v87.49C98.92,104.68,95.83,107.78,92.01,107.78z" fill="#ECB354"/>
    <path d="M34.43,109.75c0,0-0.05-101.82-0.05-103.29h-11.2c0,0-2.31-0.4-3.85,0 c-2.79,0.73-3.56,2.76-3.56,6.07c0,0,0,94.41,0,94.41c0,6.7,0.41,9.6,2.44,11.72c-0.12-1.54,0.87-6.83,1.68-8.28 C20.61,109.1,34.43,109.75,34.43,109.75z" fill="#BA793E"/>
    <line fill="none" stroke="#6D4C41" stroke-width="2" stroke-miterlimit="10" x1="23.18" x2="23.18" y1="6.45" y2="110.85"/>
    <path d="M34.38,109.34l-11.3,0.22 c-3.77,0-5.06,4.04-4.39,6.71c0.84,3.37,4.32,3.92,5.18,3.92s12.65,0,12.65,0" fill="none" stroke="#6D4C41" stroke-width="3" stroke-miterlimit="10"/>
  </g>
  <path d="M85.85,31.7c0-0.86-0.66-1.57-1.52-1.64c-3.78-0.3-7.37-1.7-10.55-3.82 c-2.03-1.35-4.47-2.13-7.1-2.13c-2.63,0-5.07,0.79-7.1,2.13c-3.18,2.11-6.78,3.51-10.55,3.81c-0.86,0.07-1.52,0.78-1.52,1.64v9.96 c0,0.86,0.66,1.57,1.52,1.64c3.78,0.3,7.37,1.7,10.55,3.81c2.03,1.35,4.47,2.13,7.1,2.13c2.63,0,5.07-0.79,7.1-2.13 c3.18-2.11,6.78-3.51,10.55-3.82c0.86-0.07,1.52-0.78,1.52-1.64V31.7z" fill="#FFFDE7"/>
  <path d="M85.85,40.5c-0.02,0.07-0.54,0.72-3.31,1c-1.16,0.12-2.28,0.46-3.39,0.81 c-2.29,0.73-4.47,1.81-6.47,3.14c-1.77,1.18-3.85,1.8-6,1.8c-2.15,0-4.18-0.7-6-1.8c-5.2-3.15-8.06-3.74-10.08-3.98 c-2.59-0.31-3.11-1.01-3.11-1.01s0.01,0.76,0.01,1.21c0,0.86,0.66,1.57,1.52,1.64c3.78,0.3,7.37,1.7,10.55,3.81 c2.03,1.35,4.47,2.13,7.1,2.13c2.63,0,5.07-0.79,7.1-2.13c3.18-2.11,6.78-3.51,10.55-3.82c0.86-0.07,1.52-0.78,1.52-1.64 C85.85,41.33,85.85,40.5,85.85,40.5z" fill="#D68B52"/>
  <path d="M47.5,32.82c0,0,1.08-0.71,3.31-0.96c1.15-0.13,2.28-0.46,3.39-0.81c2.29-0.73,4.47-1.81,6.47-3.14 c1.77-1.18,3.85-1.8,6-1.8c2.15,0,4.22,0.62,6,1.8c2.05,1.36,5.14,3.36,10.08,3.98c0.46,0.06,2.33-0.09,3.1,1.24 c0,0-0.01-0.99-0.01-1.43c0-0.86-0.66-1.57-1.52-1.64c-3.78-0.3-7.37-1.7-10.55-3.81c-2.03-1.35-4.47-2.13-7.1-2.13 c-2.63,0-5.07,0.79-7.1,2.13c-3.18,2.11-6.78,3.51-10.55,3.82c-0.86,0.07-1.52,0.78-1.52,1.64C47.5,32.02,47.5,32.82,47.5,32.82z" fill="#FFECB3"/>
</svg>

<svg viewBox="0 0 128 128" xmlns="http://www.w3.org/2000/svg">
  <defs/>
  <path d="M106.02,121.68 L36.18,121.68 C34.52,121.68 34.92,120.33 34.92,118.67 L34.92,14.05 C34.92,12.39 36.27,11.04 37.93,11.04 L107.29,11.04 C110.01,11.04 112.22,13.25 112.22,15.97 L112.22,115.73 C112.22,119.59 110.39,121.68 106.02,121.68 Z" fill="#D68B52"/>
  <path d="M18.53,115.14 C18.53,117.08 21.6,118.71 23.54,118.71 L103.93,118.66 C106.91,118.66 108.47,117.08 108.47,115.14 L108.22,93.82 L18.53,93.82 L18.53,115.14 Z" fill="#94C6D6"/>
  <path d="M101.47,105.88 C101.47,105.88 99.34,111.73 101.5,114.66 C104.01,118.06 108.39,117.24 108.39,115.65 L108.39,16.44 C108.39,15.78 107.78,15.3 107.14,15.44 C105.75,15.74 103.25,15.75 99.93,13.55 L101.47,105.88 Z" fill="#F5F5F5"/>
  <path d="M94.16,110.85 L23.64,110.85 L23.64,6.45 C23.64,6.45 93.63,6.45 95.89,6.45 C98.16,6.45 99.76,7.06 100.51,8.07 C101.49,9.38 102.01,11.37 102.01,13.55 L102.01,103 C102.01,107.33 98.5,110.85 94.16,110.85 Z" fill="#D68B52"/>
  <path d="M92.01,107.78 L25.54,107.78 C22.78,107.78 20.55,105.54 20.55,102.79 L20.55,11.45 C20.55,8.69 22.79,6.46 25.54,6.46 L92.01,6.46 C95.83,6.46 98.93,8.64 98.93,13.38 L98.93,100.87 C98.92,104.68 95.83,107.78 92.01,107.78 Z" fill="#ECB354"/>
  <path d="M34.43,109.75 C34.43,109.75 34.38,7.93 34.38,6.46 L23.18,6.46 C23.18,6.46 20.87,6.06 19.33,6.46 C16.54,7.19 15.77,9.22 15.77,12.53 C15.77,12.53 15.77,106.94 15.77,106.94 C15.77,113.64 16.18,116.54 18.21,118.66 C18.09,117.12 19.08,111.83 19.89,110.38 C20.61,109.1 34.43,109.75 34.43,109.75 Z" fill="#BA793E"/>
  <path d="M24.18,6.45 L24.18,110.85 L22.18,110.85 L22.18,6.45 L24.18,6.45 Z" fill="#6D4C41"/>
  <path d="M34.409,110.84 L23.109,111.06 Q21.368,111.06 20.546,112.615 Q19.714,114.189 20.145,115.905 Q20.839,118.69 23.87,118.69 L36.52,118.69 L36.52,121.69 L23.87,121.69 Q22.257,121.69 20.584,120.827 Q17.94,119.461 17.235,116.635 Q16.525,113.804 17.894,111.213 Q19.56,108.06 23.051,108.06 L34.351,107.84 Z" fill="#6D4C41"/>
  <path d="M85.85,31.7 C85.85,30.84 85.19,30.13 84.33,30.06 C80.55,29.76 76.96,28.36 73.78,26.24 C71.75,24.89 69.31,24.11 66.68,24.11 C64.05,24.11 61.61,24.9 59.58,26.24 C56.4,28.35 52.8,29.75 49.03,30.05 C48.17,30.12 47.51,30.83 47.51,31.69 L47.51,41.65 C47.51,42.51 48.17,43.22 49.03,43.29 C52.81,43.59 56.4,44.99 59.58,47.1 C61.61,48.45 64.05,49.23 66.68,49.23 C69.31,49.23 71.75,48.44 73.78,47.1 C76.96,44.99 80.56,43.59 84.33,43.28 C85.19,43.21 85.85,42.5 85.85,41.64 L85.85,31.7 Z" fill="#FFFDE7"/>
  <path d="M85.85,40.5 C85.83,40.57 85.31,41.22 82.54,41.5 C81.38,41.62 80.26,41.96 79.15,42.31 C76.86,43.04 74.68,44.12 72.68,45.45 C70.91,46.63 68.83,47.25 66.68,47.25 C64.53,47.25 62.5,46.55 60.68,45.45 C55.48,42.3 52.62,41.71 50.6,41.47 C48.01,41.16 47.49,40.46 47.49,40.46 C47.49,40.46 47.5,41.22 47.5,41.67 C47.5,42.53 48.16,43.24 49.02,43.31 C52.8,43.61 56.39,45.01 59.57,47.12 C61.6,48.47 64.04,49.25 66.67,49.25 C69.3,49.25 71.74,48.46 73.77,47.12 C76.95,45.01 80.55,43.61 84.32,43.3 C85.18,43.23 85.84,42.52 85.84,41.66 C85.85,41.33 85.85,40.5 85.85,40.5 Z" fill="#D68B52"/>
  <path d="M47.5,32.82 C47.5,32.82 48.58,32.11 50.81,31.86 C51.96,31.73 53.09,31.4 54.2,31.05 C56.49,30.32 58.67,29.24 60.67,27.91 C62.44,26.73 64.52,26.11 66.67,26.11 C68.82,26.11 70.89,26.73 72.67,27.91 C74.72,29.27 77.81,31.27 82.75,31.89 C83.21,31.95 85.08,31.8 85.85,33.13 C85.85,33.13 85.84,32.14 85.84,31.7 C85.84,30.84 85.18,30.13 84.32,30.06 C80.54,29.76 76.95,28.36 73.77,26.25 C71.74,24.9 69.3,24.12 66.67,24.12 C64.04,24.12 61.6,24.91 59.57,26.25 C56.39,28.36 52.79,29.76 49.02,30.07 C48.16,30.14 47.5,30.85 47.5,31.71 C47.5,32.02 47.5,32.82 47.5,32.82 Z" fill="#FFECB3"/>
</svg>
